X:158
T:Long Drop, The
M:4/4
L:1/8
R:Reel
K:G
gedg edBA|GEE/2E/2E EDB,D|G/2G/2GGB BABc|dBeB dG (3Bcd)|
gedg edBA|GEE/2E/2E EDB,D|G/2G/2GGB (3Bcd)  eg| dBAc BG (3Bcd)||
g2 eg edBA|GEE/2E/2E EDB,D|G/2G/2GGB BABc|dBeB dG (3Bcd)|
gedg edBA|GEE/2E/2E EDB,D|G/2G/2GGB (3Bcd)  eg| dBAc BG (3Bcd)||
gBBA B/2B/2BgB|BggB aged|cBcd edef|ge"sl"bg ed(3Bcd)|
gBBA B/2B/2BgB|BggB aged|cBcd edge|dBAc BG (3Bcd)||
gBBA B/2B/2BgB|BggB aged|cBcd edef|ge"sl"bg ed(3Bcd)|
gBBA B/2B/2BgB|BggB aged|cBcd edge|dBAc BG (3Bcd)||
